!!!COM: Bach, Johann Sebastian!!!COM: Bach, Johann Sebastian
!!!OTL: 273. Ein' feste Burg ist unser Gott!!!OTL: 273. Ein' feste Burg ist unser Gott
!!!ONM: No. 273!!!ONM: No. 273
!!!OCL: Erk!!!OCL: Erk
!!!SCA: BWV 80.8!!!SCA: BWV 80.8
!!!YOE: Riemenschneider, Albert!!!YOE: Riemenschneider, Albert
!!!OPR: 371 Harmonized Chorales and 69 Chorale Melodies with Figured Bass!!!OPR: 371 Harmonized Chorales and 69 Chorale Melodies with Figured Bass
!!!OPT: Bach Chorale Harmonizations!!!OPT: Bach Chorale Harmonizations
!!!ONB: From the end of Cantata 80.!!!ONB: From the end of Cantata 80.
**kern	**kern	**kern	**kern	**harm	**root	**kern
!bass	!tenor	!alto	!sprno	!	!	!
*Iorgan	*Iorgan	*Iorgan	*Iorgan	*Iorgan	*Iorgan	*
*>[A,A,B]	*>[A,A,B]	*>[A,A,B]	*>[A,A,B]	*>[A,A,B]	*>[A,A,B]	*>[A,A,B]
*>norep[A,B]	*>norep[A,B]	*>norep[A,B]	*>norep[A,B]	*>norep[A,B]	*>norep[A,B]	*>norep[A,B]
*>A	*>A	*>A	*>A	*>A	*>A	*>A
*k[f#c#]	*k[f#c#]	*k[f#c#]	*k[f#c#]	*k[f#c#]	*k[f#c#]	*k[f#c#]
*D:	*D:	*D:	*D:	*D:	*D:	*D:
*met(C)	*met(C)	*met(C)	*met(C)	*met(C)	*met(C)	*met(C)
*M4/4	*M4/4	*M4/4	*M4/4	*M4/4	*M4/4	*M4/4
*MM60	*MM60	*MM60	*MM60	*MM60	*MM60	*MM60
8d	8f#	4a	4dd	I	4DD	4D 4f# 4a
8c#	8e	.	.	.	.	.
=1	=1	=1	=1	=1	=1	=1
4B	8d	8a	4dd	vi7	4BB	4B 4dd 4ff# 4aa
.	8e	8g	.	.	.	.
8A	8f#	8f#	4dd	Ic	4DD	4d 4f# 4A
8G	8g	8e	.	.	.	.
8F#	4a	4d	8a	Ib	8DD	8d 8F# 8a
8G	.	.	8b	IV	8GG	8G 8b 8dd
8F#	4g	4e	4cc#	viib	4CC#	4c# 4E 4g#
8E	.	.	.	.	.	.
=2	=2	=2	=2	=2	=2	=2
4F#	4f#	8A	8dd	Ib	8DD	8d 8F# 8a
.	.	4a	8cc#	iii	8FF#	8F# 8a 8cc#
4E	8B	.	4b	V/V	4EE	4E 4g# 4b
.	8e	8g#	.	.	.	.
4AA;	4c#;	4e;	4a;	V;	4AA;	4A; 4cc#; 4ee;
4BB	8F#	4b	4dd	vi	4BB	4B 4dd 4ff#
.	8G#	.	.	.	.	.
=3	=3	=3	=3	=3	=3	=3
8C#	4A	8e	4cc#	Vb	4AA	4a 4C# 4ee
8D	.	8f#	.	.	.	.
4E	8e	4g	4b	ii	4EE	4E 4g 4b
.	8d	.	.	.	.	.
4F#	4c#	8f#	4a	iii	4FF#	4F# 4a 4cc#
.	.	8e	.	.	.	.
8G	8B	8d	8b	IV	8GG	8G 8b 8dd
8A	8c#	8c#	8a	V	8AA	8A 8cc# 8ee
=4	=4	=4	=4	=4	=4	=4
8B	4d	4B	8g	IVb	4GG	4g 4B 4dd
8G	.	.	8f#	.	.	.
8A	8A	4c#	4e	V	4AA	4A 4cc# 4ee
8AA	8G	.	.	.	.	.
4D;	4F#;	4A;	4d;	I;	4DD;	4D; 4f#; 4a;

=:|!	=:|!	=:|!	=:|!	=:|!	=:|!	=:|!
*>B	*>B	*>B	*>B	*>B	*>B	*>B

!! Repeat from the beginning.!! Repeat from the beginning.

!! Continuing.!! Continuing.

8D	8F#	4d	4d	I	4DD	4D 4f# 4a
8E	8G	.	.	.	.	.
=5	=5	=5	=5	=5	=5	=5
4F#	8A	8c#	4a	iii	4FF#	4F# 4a 4cc#
.	8d	8f#	.	.	.	.
4G#	8c#	4e	4b	Vb/V	4EE	4e 4G# 4b
.	8B	.	.	.	.	.
8A	4c#	8e	4a	V	4AA	4A 4cc# 4ee
8D	.	8f#	.	.	.	.
4E	4B	4e	4g#	V/V	4EE	4E 4g# 4b
=6	=6	=6	=6	=6	=6	=6
!!linebreak: 2!!linebreak: 2
2AA;	2c#;	2e;	2a;	V;	2AA;	2A; 2cc#; 2ee;
4BB	8F#	4d	4d	vi	4BB	4B 4dd 4ff#
.	8G	.	.	.	.	.
4F#	4A	8d	4a	Ib	4DD	4d 4F# 4a
.	.	8cn	.	.	.	.
=7	=7	=7	=7	=7	=7	=7
4G	4d	8B	4b	IV	4GG	4G 4b 4dd
.	.	8d	.	.	.	.
4E	4e	4g	4cc#	viib	4CC#	4c# 4E 4g#
4D;	4A;	4f#;	4dd;	I;	4DD;	4D; 4f#; 4a;
4F#	4A	4f#	4cc#	iii	4FF#	4F# 4a 4cc#
=8	=8	=8	=8	=8	=8	=8
4BB	8A	4f#	4dd	vi7	4BB	4B 4dd 4ff# 4aa
.	8G#	.	.	.	.	.
4C#	4A	8e	4cc#	Vb	4AA	4a 4C# 4ee
.	.	8a	.	.	.	.
4D	4A	4f#	2b	vi7b	4BB	4b 4D 4ff# 4aa
4E	4G#	8e	.	V/V	4EE	4E 4g# 4b
.	.	8d	.	.	.	.
=9	=9	=9	=9	=9	=9	=9
4AA;	4E;	4c#;	4a;	V;	4AA;	4A; 4cc#; 4ee;
8E	8Gn	4e	4b	ii	4EE	4E 4g 4b
8F#	8A	.	.	.	.	.
4G	8B	8d	4b	IV	4GG	4G 4b 4dd
.	8c#	8e	.	.	.	.
4D	8d	4f#	4a	I	4DD	4D 4f# 4a
.	8cn	.	.	.	.	.
=10	=10	=10	=10	=10	=10	=10
4D#	4B	4f#	8b	Vb/ii	4BB	4b 4D# 4ff#
.	.	.	8a	.	.	.
4E	4B	8f#	4g	ii	4EE	4E 4g 4b
.	.	8e	.	.	.	.
4BB;	4B;	4d#;	4f#;	VI;	4BB;	4B; 4dd#; 4ff#;
4BB	8B	4f#	4ddn	vi	4BB	4B 4dd 4ff#
.	8A	.	.	.	.	.
=11	=11	=11	=11	=11	=11	=11
8E	8G	4e	4cc#	viib	4CC#	4c# 4E 4g#
8F#	8A	.	.	.	.	.
8G	4B	8dn	4b	IV	8GG	8G 8b 8dd
8E	.	8g	.	ii	8EE	8E 8g 8b
8C#	8e	8g	4a	V7b	8AA	8a 8C# 8ee 8gg
8AA	8c#	16f#	.	V	8AA	8A 8cc# 8ee
.	.	16e	.	.	.	.
8D	4d	4f#	8b	I	4DD	4D 4f# 4a
8C#	.	.	8a	.	.	.
=12	=12	=12	=12	=12	=12	=12
8BB	4d	8g	8g	IVb	8GG	8g 8B 8dd
8GG	.	8B	8f#	IV7	8GG	8G 8b 8dd 8ff#
4AA	8A	4c#	4e	V	4AA	4A 4cc# 4ee
.	8G	.	.	.	.	.
4DD;	4F#;	4A;	4d;	I;	4DD;	4D; 4f#; 4a;
==	==	==	==	==	==	==
*-	*-	*-	*-	*-	*-	*-
!!!CDT: 1685/3//-1750/7/28!!!CDT: 1685/3//-1750/7/28
!!!OCY: Deutschland!!!OCY: Deutschland
!!!AGN: chorale!!!AGN: chorale
!!!AST: Baroque!!!AST: Baroque
!!!AIN: vox!!!AIN: vox
!!!YOY: 1941!!!YOY: 1941
!!!PPP: New York; London!!!PPP: New York; London
!!!PPR: G. Schirmer!!!PPR: G. Schirmer
!!!ENC: David Huron!!!ENC: David Huron
!!!EED: David Huron!!!EED: David Huron
!!!YEN: United States of America!!!YEN: United States of America
!!!YER: 1992!!!YER: 1992
!!!YEC: Copyright 1992 David Huron!!!YEC: Copyright 1992 David Huron
!!!YEM: Rights to all derivative electronic formats reserved.!!!YEM: Rights to all derivative electronic formats reserved.
!!!YER: March 20, 1996!!!YER: March 20, 1996
!!!AMT: simple quadruple!!!AMT: simple quadruple
!!!EEV: 1.1!!!EEV: 1.1
!!chor2scor: -l 2 -s 0.6 -o %b.pmx!!chor2scor: -l 2 -s 0.6 -o %b.pmx
